gama.ui.shared/icons_svg/light/views/show.editors.svg

<svg height="25" viewBox="-230.169 -3407.518 25 25" width="25" xmlns="http://www.w3.org/2000/svg"><g fill="none"><path d="m-225.8291-3407.0177h16.32c2.12076 0 3.84 1.7193 3.84 3.84v16.32c0 2.1207-1.71924 3.84-3.84 3.84h-16.32c-2.12078 0-3.84-1.7193-3.84-3.84v-16.32c0-2.1207 1.71922-3.84 3.84-3.84z" fill="#fff"/><path d="m-225.8291-3407.0177h16.32c2.12076 0 3.84 1.7193 3.84 3.84v16.32c0 2.1207-1.71924 3.84-3.84 3.84h-16.32c-2.12078 0-3.84-1.7193-3.84-3.84v-16.32c0-2.1207 1.71922-3.84 3.84-3.84z" stroke="#000" stroke-linecap="round" stroke-linejoin="round" stroke-width=".25"/><g fill="#66727e"><path d="m-209.66913-3389.2387c0 1.226-.995 2.221-2.22099 2.221h-11.55802c-1.22598 0-2.22099-.995-2.22099-2.221v-11.558c0-1.226.99501-2.221 2.22099-2.221h11.55802c1.22599 0 2.22099.995 2.22099 2.221zm-.88839-10.2253v-1.3327c0-.7373-.59523-1.3326-1.3326-1.3326h-11.55802c-.73736 0-1.33259.5953-1.33259 1.3326v1.3327zm0 .8883h-14.22321v9.337c0 .7374.59523 1.3327 1.33259 1.3327h11.55802c.73737 0 1.3326-.5953 1.3326-1.3327zm-13.33482-2.6653h.8884v.8885h-.8884zm1.77679 0h.8884v.8885h-.8884zm1.77679 0h.8884v.8885h-.8884z"/><path d="m-222.05218-3396.2847c-.16364 0-.29222-.1235-.29222-.2808 0-.1572.12858-.2807.29222-.2807h8.76614c.16364 0 .29221.1235.29221.2807 0 .1573-.12857.2808-.29221.2808zm0 2.2462c-.16364 0-.29222-.1235-.29222-.2808 0-.1572.12858-.2807.29222-.2807h8.76614c.16364 0 .29221.1235.29221.2807 0 .1573-.12857.2808-.29221.2808zm0 2.2461c-.16364 0-.29222-.1236-.29222-.2806 0-.1574.12858-.281.29222-.281h8.76614c.16364 0 .29221.1236.29221.281 0 .157-.12857.2806-.29221.2806zm0 2.2461c-.16364 0-.29222-.1235-.29222-.2807 0-.1573.12858-.2808.29222-.2808h5.25968c.16364 0 .2922.1235.2922.2808 0 .1572-.12856.2807-.2922.2807z"/></g></g></svg>

<?xml version="1.0" encoding="UTF-8" standalone="no"?>
<!DOCTYPE svg PUBLIC "-//W3C//DTD SVG 1.1//EN" "http://www.w3.org/Graphics/SVG/1.1/DTD/svg11.dtd">
<svg version="1.1" xmlns="http://www.w3.org/2000/svg" xmlns:xl="http://www.w3.org/1999/xlink" xmlns:dc="http://purl.org/dc/elements/1.1/" viewBox="-230.1691 -3407.5177 25 25" width="25" height="25">
  <defs/>
  <g id="SOURCES" stroke-dasharray="none" fill="none" stroke="none" fill-opacity="1" stroke-opacity="1">
    <title>SOURCES</title>
    <g id="SOURCES_Calque_2">
      <title>Calque 2</title>
      <g id="Group_9802">
        <g id="Graphic_9805">
          <title>views/view.other</title>
          <path d="M -225.8291 -3407.0177 L -209.5091 -3407.0177 C -207.38834 -3407.0177 -205.6691 -3405.2984 -205.6691 -3403.1777 L -205.6691 -3386.8577 C -205.6691 -3384.737 -207.38834 -3383.0177 -209.5091 -3383.0177 L -225.8291 -3383.0177 C -227.94988 -3383.0177 -229.6691 -3384.737 -229.6691 -3386.8577 L -229.6691 -3403.1777 C -229.6691 -3405.2984 -227.94988 -3407.0177 -225.8291 -3407.0177 Z" fill="white"/>
          <path d="M -225.8291 -3407.0177 L -209.5091 -3407.0177 C -207.38834 -3407.0177 -205.6691 -3405.2984 -205.6691 -3403.1777 L -205.6691 -3386.8577 C -205.6691 -3384.737 -207.38834 -3383.0177 -209.5091 -3383.0177 L -225.8291 -3383.0177 C -227.94988 -3383.0177 -229.6691 -3384.737 -229.6691 -3386.8577 L -229.6691 -3403.1777 C -229.6691 -3405.2984 -227.94988 -3407.0177 -225.8291 -3407.0177 Z" stroke="black" stroke-linecap="round" stroke-linejoin="round" stroke-width=".25"/>
        </g>
        <g id="Group_9803">
          <title>window</title>
          <g id="Graphic_9804">
            <path d="M -209.66913 -3389.2387 C -209.66913 -3388.0127 -210.66413 -3387.0177 -211.89012 -3387.0177 L -223.44814 -3387.0177 C -224.67412 -3387.0177 -225.66913 -3388.0127 -225.66913 -3389.2387 L -225.66913 -3400.7967 C -225.66913 -3402.0227 -224.67412 -3403.0177 -223.44814 -3403.0177 L -211.89012 -3403.0177 C -210.66413 -3403.0177 -209.66913 -3402.0227 -209.66913 -3400.7967 L -209.66913 -3389.2387 Z M -210.55752 -3399.464 L -210.55752 -3400.7967 C -210.55752 -3401.534 -211.15275 -3402.1293 -211.89012 -3402.1293 L -223.44814 -3402.1293 C -224.1855 -3402.1293 -224.78073 -3401.534 -224.78073 -3400.7967 L -224.78073 -3399.464 Z M -210.55752 -3398.5757 L -224.78073 -3398.5757 L -224.78073 -3389.2387 C -224.78073 -3388.5013 -224.1855 -3387.906 -223.44814 -3387.906 L -211.89012 -3387.906 C -211.15275 -3387.906 -210.55752 -3388.5013 -210.55752 -3389.2387 Z M -223.89234 -3401.241 L -223.00394 -3401.241 L -223.00394 -3400.3525 L -223.89234 -3400.3525 Z M -222.11555 -3401.241 L -221.22715 -3401.241 L -221.22715 -3400.3525 L -222.11555 -3400.3525 Z M -220.33876 -3401.241 L -219.45036 -3401.241 L -219.45036 -3400.3525 L -220.33876 -3400.3525 Z" fill="#66727e"/>
          </g>
        </g>
      </g>
      <g id="Group_9806">
        <title>text-align-justify</title>
        <g id="Graphic_9807">
          <path d="M -222.05218 -3396.2847 C -222.21582 -3396.2847 -222.3444 -3396.4082 -222.3444 -3396.5655 C -222.3444 -3396.7227 -222.21582 -3396.8462 -222.05218 -3396.8462 L -213.28604 -3396.8462 C -213.1224 -3396.8462 -212.99383 -3396.7227 -212.99383 -3396.5655 C -212.99383 -3396.4082 -213.1224 -3396.2847 -213.28604 -3396.2847 Z M -222.05218 -3394.0385 C -222.21582 -3394.0385 -222.3444 -3394.162 -222.3444 -3394.3193 C -222.3444 -3394.4765 -222.21582 -3394.6 -222.05218 -3394.6 L -213.28604 -3394.6 C -213.1224 -3394.6 -212.99383 -3394.4765 -212.99383 -3394.3193 C -212.99383 -3394.162 -213.1224 -3394.0385 -213.28604 -3394.0385 Z M -222.05218 -3391.7924 C -222.21582 -3391.7924 -222.3444 -3391.916 -222.3444 -3392.073 C -222.3444 -3392.2304 -222.21582 -3392.354 -222.05218 -3392.354 L -213.28604 -3392.354 C -213.1224 -3392.354 -212.99383 -3392.2304 -212.99383 -3392.073 C -212.99383 -3391.916 -213.1224 -3391.7924 -213.28604 -3391.7924 Z M -222.05218 -3389.5463 C -222.21582 -3389.5463 -222.3444 -3389.6698 -222.3444 -3389.827 C -222.3444 -3389.9843 -222.21582 -3390.1078 -222.05218 -3390.1078 L -216.7925 -3390.1078 C -216.62886 -3390.1078 -216.5003 -3389.9843 -216.5003 -3389.827 C -216.5003 -3389.6698 -216.62886 -3389.5463 -216.7925 -3389.5463 Z" fill="#66727e"/>
        </g>
      </g>
    </g>
  </g>
</svg>
